public/assets/goal1.svg

<svg width="79" height="88" viewBox="0 0 79 88" fill="none" xmlns="http://www.w3.org/2000/svg">
<path d="M39.2678 3.8252L9.24707 29.8451V84.1242C9.24707 85.3108 10.3048 86.28 11.6313 86.28H67.0723C68.382 86.28 69.4565 85.3108 69.4565 84.1242V29.3772L39.2678 3.8252ZM62.7573 75.4509C62.7573 76.3701 61.9345 77.1221 60.9103 77.1221H17.7933C16.7691 77.1221 15.9463 76.3701 15.9463 75.4509V33.2375L39.2846 12.9998L62.774 32.8699V75.4509H62.7573Z" fill="url(#paint0_linear_37_71)"/>
<path d="M77.9184 33.6895L40.4092 1.30253C39.7712 0.751046 38.747 0.751046 38.109 1.30253L0.582994 33.723C0.263982 33.9904 0.0625 34.3747 0.0625 34.8092C0.0625 35.6448 0.801266 36.3133 1.72472 36.3133C2.17806 36.3133 2.59781 36.1461 2.90003 35.8788L6.42596 32.8373V83.0722C6.42596 85.3784 8.49115 87.2501 11.0433 87.2501H67.4413C69.9934 87.2501 72.0586 85.3784 72.0586 83.0722V32.8205L75.6013 35.8788C75.9036 36.1461 76.3233 36.3133 76.7767 36.3133C77.7001 36.3133 78.4389 35.6448 78.4389 34.8092C78.4557 34.3747 78.2374 33.9736 77.9184 33.6895ZM68.7174 83.0722C68.7174 83.724 68.1297 84.242 67.4246 84.242H11.0768C10.3549 84.242 9.78399 83.724 9.78399 83.0722V29.9294L39.2675 4.46101L68.7342 29.9127V83.0722H68.7174Z" fill="#18808A"/>
<defs>
<linearGradient id="paint0_linear_37_71" x1="10.5782" y1="28.5305" x2="68.0964" y2="86.3192" gradientUnits="userSpaceOnUse">
<stop stop-color="#28C985"/>
<stop offset="1" stop-color="#18808A"/>
</linearGradient>
</defs>
</svg>

<svg width="79" height="88" fill="none" xmlns="http://www.w3.org/2000/svg"><path d="m39.268 3.825-30.02 26.02v54.28c0 1.186 1.057 2.155 2.383 2.155h55.441c1.31 0 2.385-.97 2.385-2.156V29.377L39.267 3.825zm23.49 71.626c0 .92-.824 1.671-1.848 1.671H17.793c-1.024 0-1.847-.752-1.847-1.671V33.238L39.285 13l23.489 19.87v42.58h-.017z" fill="url(#a)"/><path d="M77.918 33.69 40.41 1.303c-.638-.552-1.662-.552-2.3 0L.583 33.723c-.319.267-.52.652-.52 1.086 0 .836.738 1.504 1.662 1.504.453 0 .873-.167 1.175-.434l3.526-3.042v50.235c0 2.306 2.065 4.178 4.617 4.178h56.398c2.552 0 4.618-1.872 4.618-4.178V32.82L75.6 35.88c.303.267.722.434 1.176.434.923 0 1.662-.668 1.662-1.504.017-.434-.202-.835-.52-1.12zm-9.2 49.382c0 .652-.588 1.17-1.293 1.17H11.077c-.722 0-1.293-.518-1.293-1.17V29.93L39.267 4.461l29.467 25.452v53.16h-.017z" fill="#18808A"/><defs><linearGradient id="a" x1="10.578" y1="28.53" x2="68.096" y2="86.319" gradientUnits="userSpaceOnUse"><stop stop-color="#28C985"/><stop offset="1" stop-color="#18808A"/></linearGradient></defs></svg>
